!!!COM: Corelli, Arcangelo
!!!OTL: 
!!!ONM: Opus 5, No. 6
!!!OMV: 5
!!!CDT: 1653/2/17/-1713/1/8/
!!!OCY: Italia
**kern	**kern	**kern
*clefC	*clefG	*clefG
*k[f#c#]	*k[f#c#]	*k[f#c#]
*D:	*D:	*D:
*M6/8	*M6/8	*M6/8
=1	=1	=1
2.r	2.r	4a
.	.	8b
.	.	16cc#
.	.	16dd
.	.	16cc#
.	.	16b
.	.	8a
=2	=2	=2
2.r	2.r	8dd
.	.	8b
.	.	8ee
.	.	16cc#
.	.	16dd
.	.	16cc#
.	.	16b
.	.	8a
=3	=3	=3
2.r	4ee	4ee
.	8ee	8ff#
.	4.ee	16gg#
.	.	16aa
.	.	16gg#
.	.	16ff#
.	.	8ee
=4	=4	=4
2.r	8cc#	8aa
.	8dd#	8ff#
.	8dd#	8bb
.	4.ee	16gg#
.	.	16aa
.	.	16gg#
.	.	16ff#
.	.	8ee
=5	=5	=5
4AA	4cc#	4aa
8BB	8b	8gg#
16C#	8a	8aa
16D	.	.
16C#	8b	8aa
16BB	.	.
8AA	8cc#	8aa
=6	=6	=6
8D	4.b	4aa
8BB	.	.
8E	.	8gg#
16C#	4.r	8a
16D	.	.
16C#	.	8b
16BB	.	.
8AA	.	8cc#
=7	=7	=7
8D	4.f#	4.a
8E	.	.
8F#	.	.
4.BB	4.r	16dd
.	.	16cc#
.	.	16b
.	.	16cc#
.	.	8dd
=8	=8	=8
16E	4.g#	4.b
16F#	.	.
16E	.	.
16F#	.	.
8G#	.	.
4.C#	4.r	8cc#
.	.	8dd
.	.	8ee
=9	=9	=9
8F#	4.a	4.cc#
8G#	.	.
8A	.	.
4.D	4.r	16ff#
.	.	16ee
.	.	16dd
.	.	16ee
.	.	8ff#
=10	=10	=10
4.GG#	2.r	8b
.	.	8e
.	.	8ee
4.AA	.	8cc#
.	.	8a
.	.	8ff#
=11	=11	=11
4.BB	2r	8dd#
.	.	8b
.	.	8bb
4E	.	8gg#
.	8r	8ee
8G#	8b	8bb
=12	=12	=12
4A	4cc#	8bb
.	.	8ee
8AA	8cc#	8aa
4BB	8dd#	4aa
.	8b	.
8C#	[8ee	[8gg#
=13	=13	=13
8AA	8ee]	8gg#]
4BB	4b	4ff#
8r	4.r	4e
8E	.	.
8BB	.	8f#
=14	=14	=14
8E	2.r	16g#
.	.	16a
8F#	.	16g#
.	.	16f#
8G#	.	8e
8F#	.	8a
8B	.	8f#
8BB	.	8b
=15	=15	=15
4.E	4.r	16g#
.	.	16a
.	.	16g#
.	.	16f#
.	.	8e
8r	4a	4a
8A	.	.
8E	8a	8b
=16	=16	=16
8A	4.a	16cc#
.	.	16dd
8B	.	16cc#
.	.	16b
8c#	.	8a
8B	8f#	8dd
8e	8g#	8b
8E	8g#	8ee
=17	=17	=17
4.A	4.a	16cc#
.	.	16dd
.	.	16cc#
.	.	16b
.	.	8a
4E	4g#	4ee
8F#	8f#	8dd#
=18	=18	=18
16G#	8e	8ee
16A	.	.
16G#	8f#	8ee
16F#	.	.
8E	8g#	8ee
8A	4.f#	4ee
8F#	.	.
8B	.	8dd#
=19	=19	=19
16G#	4.r	8ee
16A	.	.
16G#	.	8ff#
16F#	.	.
8E	.	8gg#
8C#	8a	8aa
8BB	8b	8aa
8AA	8cc#	8aa
=20	=20	=20
4.D	4.dd	16ff#
.	.	16gg
.	.	16aa
.	.	16gg
.	.	8ff#
8D#	8b	8bb
8C#	8cc#	8bb
8BB	8dd#	8bb
=21	=21	=21
4.E	16ee	4.ee
.	16ff#	.
.	16gg#	.
.	16ff#	.
.	8ee	.
8C#	8a	8aa
8BB	8b	8aa
8AA	8cc#	8aa
=22	=22	=22
4D	4dd	8ff#
.	.	8gg#
8AA	8cc#	8aa
4E	4.e	4aa 4b
8EE	.	8gg#
=23	=23	=23
4AA	4r	4a
8A	8a	8ff#
8G#	4g#	4ff# 4b
8G#	.	.
8c#	8g#	8ee
=24	=24	=24
4F#	4f#	4ee 4aa
8B	8f#	8dd
8E	4e	4dd 4gg#
8E	.	.
8A	8e	8cc#
=25	=25	=25
4D	4d	4cc# 4ff#
8D	8r	8b
8C#	4c#	4e
8E	.	.
8C#	8r	8ee
=26	=26	=26
8D	4d	4f#
16F#	.	.
16E	.	.
8D	8r	8ff#
4E	4g#	4b
8C#	8e	8ee
=27	=27	=27
8D	4f#	8ee
8F#	.	8a
8D	8f#	8dd
4E	8g#	4dd
.	8e	.
8F#	[8a	[8cc#
=28	=28	=28
8D	8a]	8cc#]
8E	4e	4b
8EE	.	.
4.AA	4.r	16a
.	.	16cc#
.	.	16ee
.	.	16cc#
.	.	16a
.	.	16cc#
=29	=29	=29
8E	2.r	16g#
.	.	16b
8G#	.	16ee
.	.	16b
8E	.	16g#
.	.	16ee
4.A	.	16cc#
.	.	16a
.	.	16cc#
.	.	16ee
.	.	16a
.	.	16cc#
=30	=30	=30
8E	2.r	16g#
.	.	16b
8G#	.	16ee
.	.	16b
8E	.	16g#
.	.	16ee
4.AA	.	16cc#
.	.	16a
.	.	16cc#
.	.	16ee
.	.	16a
.	.	16cc#
=31	=31	=31
8F#	2.r	16a#
.	.	16cc#
8A#	.	16ff#
.	.	16cc#
8F#	.	16a#
.	.	16ff#
4.B	.	16dd
.	.	16b
.	.	16dd
.	.	16ff#
.	.	16b
.	.	16dd
=32	=32	=32
8F#	2.r	16a#
.	.	16cc#
8A#	.	16ff#
.	.	16cc#
8F#	.	16a#
.	.	16ff#
4.BB	.	16dd
.	.	16b
.	.	16dd
.	.	16ff#
.	.	16b
.	.	16dd
=33	=33	=33
8C#	2.r	16e#
.	.	16g#
8E#	.	16cc#
.	.	16g#
8C#	.	16e#
.	.	16cc#
4.F#	.	16a
.	.	16f#
.	.	16a
.	.	16cc#
.	.	16a
.	.	16f#
=34	=34	=34
8C#	2.r	16e#
.	.	16g#
8E#	.	16cc#
.	.	16g#
8C#	.	16e#
.	.	16cc#
4FF#	.	16a
.	.	16f#
.	.	16a
.	.	16cc#
8AA	.	16ff#
.	.	16cc#
=35	=35	=35
4BB	2.r	16dd
.	.	16b
.	.	16dd
.	.	16ff#
8BB	.	16b
.	.	16dd
4C#	.	4e#
8AA	.	8cc#
=36	=36	=36
8BB	4.r	16b
.	.	16a
4C#	.	4g#
8FF#	4.c#	4.a 4.f#
8F#	.	.
8G#	.	.
=37	=37	=37
16A	4.r	4.r
16B	.	.
16A	.	.
16G	.	.
8F#	.	.
8E#	8g#	8cc#
8C#	8e#	8cc#
8E#	8g#	8cc#
=38	=38	=38
8F#	4.a	4.cc#
8A	.	.
8B	.	.
16c#	4.r	4.r
16d	.	.
16c#	.	.
16B	.	.
8A	.	.
=39	=39	=39
8G#	8b	8ee
8E	8g#	8b
8G#	8b	8ee
8A	4.a	4.cc# 4.ee
8c#	.	.
8d#	.	.
=40	=40	=40
16e	4.r	4.r
16f#	.	.
16e	.	.
16d	.	.
8c#	.	.
8B#	8dd#	8gg#
8G#	8b#	8gg#
8B#	8dd#	8gg#
=41	=41	=41
8c#	8ee	8gg#
8C#	4cc#	8ee
8c#	.	8aa
8B	4.r	8aa
8BB	.	8dd#
8B	.	8gg#
=42	=42	=42
8A	4.r	8gg#
8AA	.	8cc#
8A	.	8ff#
4G#	4g#	4ff# 4b#
8E	8r	8gg#
=43	=43	=43
8F#	2.r	16ff#
.	.	16ee
8G#	.	4dd#
8GG#	.	.
4.C#	.	8cc#
.	.	16cc#
.	.	16dd#
.	.	8ee
=44	=44	=44
4.F#	2.r	8A#
.	.	8f#
.	.	8ee
4.BB	.	8dd
.	.	16b
.	.	16cc#
.	.	8dd
=45	=45	=45
4.E	2.r	8G#
.	.	8e
.	.	8dd
4.AA	.	8cc#
.	.	16a
.	.	16b
.	.	8cc#
=46	=46	=46
4.C#	2.r	8e#
.	.	8cc#
.	.	8bb
4.F#	.	8aa
.	.	16ff#
.	.	16gg#
.	.	8aa
=47	=47	=47
4.BB	2.r	8d#
.	.	8b
.	.	8aa
4.E	.	8gg#
.	.	16ee
.	.	16ff#
.	.	8gg
=48	=48	=48
4.AA	2.r	8e
.	.	8cc#
.	.	8gg
4.D	.	8d
.	.	8a
.	.	8ff#
=49	=49	=49
4.E	4.r	8g#
.	.	8b
.	.	8ee
4.A	4a	8cc#
.	.	8ff#
.	8a	8cc#
=50	=50	=50
8r	4g#	8b
8G#	.	8ee
8E	8g#	8b
4.F#	4f#	8a
.	.	8dd
.	8r	8f#
=51	=51	=51
8r	4.r	8e
8E	.	8cc#
8C#	.	8e
4.D	4d	8f#
.	.	8b
.	8d	8f#
=52	=52	=52
8r	4c#	8e
8C#	.	16a
.	.	16b
8AA	2r	8cc#
4.BB	.	8d
.	.	16b
.	.	16cc#
.	.	8dd
=53	=53	=53
4.C#	2.r	8e
.	.	16cc#
.	.	16dd
.	.	8ee
4.D	.	8f#
.	.	16dd
.	.	16ee
.	.	8ff#
=54	=54	=54
4.E	2.r	8g#
.	.	8b
.	.	8ee
4A	.	8cc#
.	.	8ee
8A	.	8aa
=55	=55	=55
4B	2.r	8dd
.	.	8ff#
8B	.	8bb
4c#	.	8ee
.	.	8gg#
8C#	.	8aa
=56	=56	=56
8D	8r	16dd
.	.	16cc#
4E	4e	4b
8r	4.r	4aa
8A	.	.
8E	.	8bb
=57	=57	=57
8A	2.r	16ccc#
.	.	16ddd
8B	.	16ccc#
.	.	16bb
8c#	.	8aa
8B	.	8ddd
8e	.	8bb
8E	.	8eee
=58	=58	=58
4.A	4.r	16ccc#
.	.	16ddd
.	.	16ccc#
.	.	16bb
.	.	8aa
8r	4ee	4ee
8E	.	.
8BB	8ee	8ff#
=59	=59	=59
8E	4.ee	16gg#
.	.	16aa
8F#	.	16gg#
.	.	16ff#
8G#	.	8ee
8F#	8cc#	8aa
8B	8dd#	8ff#
8BB	8dd#	8bb
=60	=60	=60
4.E	4.ee	16gg#
.	.	16aa
.	.	16gg#
.	.	16ff#
.	.	8ee
4AA	4cc#	4aa
8BB	8b	8gg#
=61	=61	=61
16C#	8a	8aa
16D	.	.
16C#	8b	8aa
16BB	.	.
8AA	8cc#	8aa
8D	4.b	4aa
8BB	.	.
8E	.	8gg#
=62	=62	=62
16C#	4.r	8a
16D	.	.
16C#	.	8b
16BB	.	.
8AA	.	8cc#
8D	4.f#	4.a
8E	.	.
8F#	.	.
=63	=63	=63
4.BB	4.r	16dd
.	.	16cc#
.	.	16b
.	.	16cc#
.	.	8dd
16E	4.g#	4.b
16F#	.	.
16E	.	.
16F#	.	.
8G#	.	.
=64	=64	=64
4.C#	4.r	8cc#
.	.	8dd
.	.	8ee
8F#	4.a	4.cc#
8G#	.	.
8A	.	.
=65	=65	=65
4.D#	4.d#	4f# 4b
.	.	8a
4.E	4.r	8g#
.	.	8b
.	.	8ee
=66	=66	=66
4.BB	4.B	4ee 4f#
.	.	8dd#
4.E	4.ee	16ee
.	.	16ff#
.	.	16gg#
.	.	16ff#
.	.	8ee
=67	=67	=67
8C#	8a	8aa
8BB	8b	8aa
8AA	8cc#	8aa
4.D	4.dd	16ff#
.	.	16gg#
.	.	16aa
.	.	16gg#
.	.	8ff#
=68	=68	=68
8D#	8b	8bb
8C#	8cc#	8bb
8BB	8dd#	8bb
4.E	4.ee	16ee
.	.	16ff#
.	.	16gg#
.	.	16ff#
.	.	8ee
=69	=69	=69
8C#	8a	8aa
8BB	8b	8aa
8AA	8cc#	8aa
4D	4dd	8ff#
.	.	8gg#
8AA	8cc#	8aa
=70	=70	=70
4E	4.e	4aa 4b
8EE	.	8gg#
4AA	4r	4a
8C#	8e	8ee
=71	=71	=71
4D	4f#	8ee
.	.	8dd
8E	8g#	8dd
8F#	4.a	8dd
8E	.	8cc#
8D	.	8b
=72	=72	=72
8E	8a	8cc#
4EE	4e	4b
4AA	4a	4a
8C#	8e	8ee
=73	=73	=73
4D	4f#	8ee
.	.	8dd
8E	8g#	8dd
8F#	4.a	8dd
8E	.	8cc#
8D	.	8b
=74	=74	=74
8E	8a	8cc#
4EE	4e	4b
4.AA	4.A	4.e 4.a
==	==	==
*-	*-	*-
!!!RWG: This file only contains pitch and duration data.
!!!RWG: Transposing instruments are not transposed.
!!!RWG: Durations of rests and tied notes may be interpreted.
!!!RWG: Key is interpreted using the Humdrum key tool.
!!!SCA: 
!!!YOR: 
!!!AGN: violin
!!!AFT: stage1
!!!ENC: F. Bennion
!!!END: 1997/04/15
!!!AST: baroque
!!!YEC: Copyright 1994, Center for Computer Assisted Research in the Humanities
!!!YEM: Rights to all derivative electronic formats reserved.
!!!YEM: Refer to licensing agreement for further details.
!!!YEN: United States of America
!!!EED: W.B. Hewlett
!!!KEY: 2297333492
!!!EMD: Converted from MuseData to Humdrum Aug 9, 1999, by Bret Aarden using muse2kern.
!!!VTS: 2786061764
